images/footer_logo.svg

<svg width="151" height="34" viewBox="0 0 151 34" fill="none" xmlns="http://www.w3.org/2000/svg">
<path d="M92.4541 28.6473C87.1839 28.6473 83.6077 25.3252 83.6077 19.3253C83.6077 13.5965 86.8388 10.0033 91.7012 10.0033C96.344 10.0033 98.9791 13.1897 98.9791 18.5456V20.5795H87.7172C87.9995 23.2236 89.6621 24.5456 92.9246 24.5456C94.9398 24.5394 96.9262 24.0289 98.7281 23.0541V26.8846C97.5612 27.8676 94.9919 28.6473 92.4541 28.6473ZM87.6858 17.7659H95.0264C94.9951 15.3253 93.8971 13.6982 91.4502 13.6982C89.1257 13.6948 87.8364 15.3219 87.6827 17.7626L87.6858 17.7659Z" fill="#43426D"/>
<path d="M40.4199 28.6473C35.3693 28.6473 31.6362 24.6134 31.6362 19.3253C31.6362 13.9016 35.3693 10.0033 40.4199 10.0033C45.4705 10.0033 49.2349 13.8982 49.2349 19.3219C49.2349 24.6134 45.4862 28.6473 40.4199 28.6473ZM40.4199 24.5456C41.0567 24.5596 41.6895 24.4338 42.2799 24.1758C42.8704 23.9177 43.4062 23.5329 43.855 23.0445C44.3037 22.5561 44.6561 21.9743 44.8906 21.3344C45.1252 20.6945 45.2371 20.0099 45.2195 19.3219C45.2195 16.2032 43.1177 14.1016 40.4199 14.1016C37.7221 14.1016 35.683 16.2032 35.683 19.3219C35.683 22.3727 37.7534 24.5456 40.4199 24.5456Z" fill="#43426D"/>
<path d="M57.7212 28.6812C54.7724 28.6812 52.4197 27.4269 52.4197 22.8846V14.1694H49.91V13.0846L55.5567 6.98294H56.4664V10.3389H62.0189V14.1694H56.4664V22.3049C56.4664 24.1015 57.3761 24.7117 58.8192 24.7117C59.9392 24.7071 61.0438 24.429 62.0503 23.8981V27.5591C61.1123 28.1727 59.6693 28.6812 57.7212 28.6812Z" fill="#43426D"/>
<path d="M76.6719 26.9863C75.5739 27.9354 74.0682 28.6473 71.9036 28.6473C68.3274 28.6473 64.563 26.0372 64.563 19.766C64.563 12.9525 69.2058 10.0033 73.8486 10.0033C74.7107 10.0032 75.5713 10.0826 76.4209 10.2406V4.98299L80.4677 4.80685V28.3049H76.6719V26.9863ZM68.7352 19.4609C68.7352 22.9863 70.5233 24.749 73.1271 24.749C74.2803 24.7285 75.4113 24.4026 76.4209 23.7999V14.2711C75.6568 14.0279 74.8647 13.9023 74.0682 13.8982C71.2448 13.8982 68.7352 15.3897 68.7352 19.4575V19.4609Z" fill="#43426D"/>
<path d="M105.912 10.3389V12.6779C107.167 11.3559 109.175 9.99995 111.371 9.99995C111.977 9.99376 112.577 10.1327 113.128 10.4067V15.0508C112.174 14.4955 111.105 14.2153 110.022 14.2372C108.662 14.292 107.336 14.7114 106.163 15.4576V28.305H102.117V10.3389H105.912Z" fill="#43426D"/>
<path d="M120.311 11.5253C121.729 10.525 123.386 9.99479 125.079 9.9999C128.938 9.9999 132.169 12.8812 132.169 18.9151C132.169 25.7287 127.808 28.6439 123.228 28.6439C120.154 28.6439 117.99 27.7965 116.264 27.1185V4.98297L120.311 4.3728V11.5253ZM127.99 19.1863C127.99 15.5592 126.077 13.9999 123.849 13.9999C122.619 14.0135 121.408 14.3264 120.305 14.9151V24.3049C121.18 24.5903 122.088 24.7387 123.002 24.7456C125.769 24.7456 127.99 23.4236 127.99 19.1863Z" fill="#43426D"/>
<path d="M139.832 28.4102L140.208 27.5627L132.774 10.3424H137.291L142.059 22.7119L146.514 10.3391H151L141.426 34H137.448L139.832 28.4102ZM139.832 28.4068L140.208 27.5593L132.774 10.3391H137.291L142.059 22.7119L146.514 10.3391H151L141.426 34H137.448L139.832 28.4068Z" fill="#43426D"/>
<path d="M24.2335 5.39104V14.6779H16.8583V5.32202C13.988 5.32202 13.2476 5.16269 11.6854 4.85083C7.57139 3.93379 3.62406 2.29518 0 0C0.505289 2.78126 1.87432 5.2927 3.88049 7.11862C5.18021 8.34259 6.6387 9.35443 8.20958 10.122C8.51867 10.2921 8.75639 10.5828 8.87463 10.9352C8.99287 11.2875 8.9828 11.6753 8.84645 12.0199C8.7101 12.3646 8.45766 12.6404 8.14023 12.7915C7.8228 12.9426 7.46409 12.9577 7.13672 12.8339C6.51987 12.5457 5.91775 12.2221 5.33293 11.8644C5.16199 13.0507 5.35129 14.265 5.8725 15.3254C6.31384 15.9727 6.88659 16.502 7.54677 16.8728C8.20696 17.2436 8.937 17.446 9.68084 17.4643C10.0312 17.5076 10.3526 17.6955 10.5779 17.9887C10.8031 18.2819 10.9149 18.6578 10.8898 19.0379C10.8647 19.418 10.7047 19.773 10.4432 20.0287C10.1817 20.2844 9.83887 20.421 9.48635 20.4101L9.34205 20.3898C8.91979 20.3299 8.50089 20.245 8.08724 20.1355C8.49711 21.0604 9.08667 21.879 9.81574 22.5355C10.6435 23.1831 11.5834 23.6442 12.5795 23.8914V28.6372H16.8458V19.0169H24.2178V28.644H28.4841V5.32202L24.2335 5.39104Z" fill="#43426D"/>
</svg>

<svg xmlns="http://www.w3.org/2000/svg" width="151" height="34" fill="#43426d"  xmlns:v="https://vecta.io/nano"><path d="M92.454 28.647c-5.27 0-8.846-3.322-8.846-9.322 0-5.729 3.231-9.322 8.094-9.322 4.643 0 7.278 3.186 7.278 8.542v2.034H87.717c.282 2.644 1.945 3.966 5.207 3.966a12.26 12.26 0 0 0 5.804-1.492v3.831c-1.167.983-3.736 1.763-6.274 1.763zm-4.768-10.881h7.341c-.031-2.441-1.129-4.068-3.576-4.068-2.325-.003-3.614 1.624-3.767 4.064l.003.003zM40.42 28.647c-5.051 0-8.784-4.034-8.784-9.322 0-5.424 3.733-9.322 8.784-9.322s8.815 3.895 8.815 9.319c0 5.291-3.749 9.325-8.815 9.325zm0-4.102a4.4 4.4 0 0 0 1.86-.37 4.7 4.7 0 0 0 1.575-1.131 5.14 5.14 0 0 0 1.036-1.71 5.45 5.45 0 0 0 .329-2.012c0-3.119-2.102-5.22-4.8-5.22s-4.737 2.102-4.737 5.22c0 3.051 2.07 5.224 4.737 5.224zm17.301 4.136c-2.949 0-5.302-1.254-5.302-5.797v-8.715h-2.51v-1.085l5.647-6.102h.91v3.356h5.553v3.83h-5.553v8.136c0 1.797.91 2.407 2.353 2.407a6.98 6.98 0 0 0 3.231-.814v3.661c-.938.614-2.381 1.122-4.329 1.122zm18.951-1.695c-1.098.949-2.604 1.661-4.768 1.661-3.576 0-7.341-2.61-7.341-8.881 0-6.813 4.643-9.763 9.286-9.763a14.06 14.06 0 0 1 2.572.237V4.983l4.047-.176v23.498h-3.796v-1.319zm-7.937-7.525c0 3.525 1.788 5.288 4.392 5.288a6.65 6.65 0 0 0 3.294-.949v-9.529a7.89 7.89 0 0 0-2.353-.373c-2.823 0-5.333 1.492-5.333 5.559v.003zm37.177-9.122v2.339c1.255-1.322 3.263-2.678 5.459-2.678.606-.006 1.206.133 1.757.407v4.644c-.954-.555-2.023-.836-3.106-.814-1.36.055-2.686.474-3.859 1.22v12.847h-4.046V10.339h3.795zm14.399 1.186c1.418-1 3.075-1.531 4.768-1.525 3.859 0 7.09 2.881 7.09 8.915 0 6.814-4.361 9.729-8.941 9.729-3.074 0-5.238-.847-6.964-1.525V4.983l4.047-.61v7.153zm7.679 7.661c0-3.627-1.913-5.186-4.141-5.186a7.7 7.7 0 0 0-3.544.915v9.39c.875.285 1.783.434 2.697.441 2.767 0 4.988-1.322 4.988-5.559zm11.842 9.224l.376-.848-7.434-17.22h4.517l4.768 12.37 4.455-12.373H151L141.426 34h-3.978l2.384-5.59zm0-.003l.376-.848-7.434-17.22h4.517l4.768 12.373 4.455-12.373H151L141.426 34h-3.978l2.384-5.593zM24.234 5.391v9.287h-7.375V5.322c-2.87 0-3.611-.159-5.173-.471C7.571 3.934 3.624 2.295 0 0c.505 2.781 1.874 5.293 3.88 7.119 1.3 1.224 2.758 2.236 4.329 3.003.309.17.547.461.665.813a1.59 1.59 0 0 1-.028 1.085 1.43 1.43 0 0 1-.706.772c-.317.151-.676.166-1.004.042-.617-.288-1.219-.612-1.804-.969a5.94 5.94 0 0 0 .54 3.461c.441.647 1.014 1.177 1.674 1.547s1.39.573 2.134.591c.35.043.672.231.897.524a1.56 1.56 0 0 1 .312 1.049c-.025.38-.185.735-.447.991a1.31 1.31 0 0 1-.957.381l-.144-.02a10.87 10.87 0 0 1-1.255-.254 7.09 7.09 0 0 0 1.729 2.4 7.36 7.36 0 0 0 2.764 1.356v4.746h4.266v-9.62h7.372v9.627h4.266V5.322l-4.251.069z"/></svg>
